X: 1
T: Rambling Pitchfork, The
M: 6/8
L: 1/8
R: jig
K: Dmin
FFF AFF|cFF AF^F|G^FG ABg|fed cAG|
^FDD ADD|CDD A,DD|G^FG ABG|AFD D3:|
fff ecA|BBB AFD|G^FG ABg|fed cAG|
^FDD ADD|CDD A,DD|G^FG ABG|AFD D3:|
FEF G^FG|A^FA dA^F|G^FG ABg|fed cAG|
^FDD ADD|CDD A,DD|G^FG ABG|AFD D3:|
d2e fed|ecA ABc|d2e fed|agf gec|
d2e fed|ecA FGA|G^FG ABG|AFD D3:|
